!!!COM: Bach, Johann Sebastian
!!!CDT: 1685/3//-1750/7/28/
!!!OTL@@DE: Hilf, Herr Jesu, lass gelingen
!!!SCT: BWV 248
**kern	**kern	**kern	**kern
*M3/4	*M3/4	*M3/4	*M3/4
=1-	=1-	=1-	=1-
8F	4f	4a	4cc
8G	.	.	.
4A	2c	2f	2a
4F	.	.	.
=2	=2	=2	=2
2C	4.c	4f	2g
.	.	4e	.
.	8B-	.	.
4D	4A	4f	4f
=3	=3	=3	=3
8G	2B-	4d	4b-
8F	.	.	.
4E-	.	4g	4.cc
4F	8A	4f	.
.	16B-	.	16dd
.	16c	.	16ee-
=4	=4	=4	=4
8BB-	4c	2.f	2.dd
8C	.	.	.
4D	8B-	.	.
.	8A	.	.
4BB-	4B-	.	.
=5	=5	=5	=5
2.F;	2.A;	2.f;	2.cc;
=6	=6	=6	=6
4D	4f	4a	4dd
4G	2d	2g	2b-
4F	.	.	.
=7	=7	=7	=7
4E	8c	4g	2cc
.	8B-	.	.
8F	4A	4f	.
8E	.	.	.
8D	4A	4f	4f
8C	.	.	.
=8	=8	=8	=8
8D	8d	8f	4b-
8E	8c	8g	.
4F	2c	4g	2a
4F	.	4f	.
=9	=9	=9	=9
*-	*-	*-	*-

